X: 901
T: The fiddler's contest
C: anon.
O: Ireland
B: Francis O'Neill: "The Dance Music of Ireland" (1907) no. 901
R: Hornpipe
Z: Transcribed by Frank Nordberg - http://www.musicaviva.com
F: http://www.musicaviva.com/abc/tunes/ireland/oneill-1001/oneill-1001-090
1.abc
M: C|
L: 1/8
K: A
(cd)|edef ecAc|defg agaf|eagf ecAc|BABc B2(cd)|edef ecAc|defg agaf|eagf e
dcB|A2a2A2:|
|:(AF)|EAAB cAea|FBBc dBfB|defg agaf|edcB AEFG|EAAB cAec|BABc defg|agaf e
dcB|A2a2A2|]
W:
W:
W: From Musica Viva - http://www.musicaviva.com
W: the Internet center for free sheet music downloads.


